icon-themes/breeze_svg/res/lx03248.svg

<svg viewBox="0 0 32 32" xmlns="http://www.w3.org/2000/svg"><path d="m7 8c-1.662 0-3 1.338-3 3v10c0 1.662 1.338 3 3 3h5c1.662 0 3-1.338 3-3v-1h3v1c0 1.662 1.338 3 3 3h5c1.662 0 3-1.338 3-3v-10c0-1.662-1.338-3-3-3h-5c-1.662 0-3 1.338-3 3v1h-3v-1c0-1.662-1.338-3-3-3zm0 2h5c.554 0 1 .446 1 1v1c-1.662 0-3 1.338-3 3v2c0 1.662 1.338 3 3 3v1c0 .554-.446 1-1 1h-5c-.554 0-1-.446-1-1v-10c0-.554.446-1 1-1zm14 0h5c.554 0 1 .446 1 1v10c0 .554-.446 1-1 1h-5c-.554 0-1-.446-1-1v-1c1.662 0 3-1.338 3-3v-2c0-1.662-1.338-3-3-3v-1c0-.554.446-1 1-1zm-8 4h2 3 2c.554 0 1 .446 1 1v2c0 .554-.446 1-1 1h-7c-.554 0-1-.446-1-1v-2c0-.554.446-1 1-1z" fill="#4d4d4d"/></svg>

<svg xmlns="http://www.w3.org/2000/svg" viewBox="0 0 32 32">
 <path 
     style="fill:#4d4d4d" 
     d="M 7 8 C 5.338 8 4 9.338 4 11 L 4 21 C 4 22.662 5.338 24 7 24 L 12 24 C 13.662 24 15 22.662 15 21 L 15 20 L 18 20 L 18 21 C 18 22.662 19.338 24 21 24 L 26 24 C 27.662 24 29 22.662 29 21 L 29 11 C 29 9.338 27.662 8 26 8 L 21 8 C 19.338 8 18 9.338 18 11 L 18 12 L 15 12 L 15 11 C 15 9.338 13.662 8 12 8 L 7 8 z M 7 10 L 12 10 C 12.554 10 13 10.446 13 11 L 13 12 C 11.338 12 10 13.338 10 15 L 10 17 C 10 18.662 11.338 20 13 20 L 13 21 C 13 21.554 12.554 22 12 22 L 7 22 C 6.446 22 6 21.554 6 21 L 6 11 C 6 10.446 6.446 10 7 10 z M 21 10 L 26 10 C 26.554 10 27 10.446 27 11 L 27 21 C 27 21.554 26.554 22 26 22 L 21 22 C 20.446 22 20 21.554 20 21 L 20 20 C 21.662 20 23 18.662 23 17 L 23 15 C 23 13.338 21.662 12 20 12 L 20 11 C 20 10.446 20.446 10 21 10 z M 13 14 L 15 14 L 18 14 L 20 14 C 20.554 14 21 14.446 21 15 L 21 17 C 21 17.554 20.554 18 20 18 L 13 18 C 12.446 18 12 17.554 12 17 L 12 15 C 12 14.446 12.446 14 13 14 z "
     />
 </svg>
